X: 94
T:Piper o'er the Meadow Straying
N: page 32
N: heptatonic
R:Hornpipe
M:C|
K:G
Bc|"G" d3c B2 A2|G2G2 B2G2|"C"ABcA "G"G3F|G2G2 B3A|\
d3c B2A2|G2G2 B2G2|"C"ABcA "G"G3F|G2B2G2z2|
"D"A3B "C"c2A2|"G"BABc "D"d2A2|"G"B/c/d3 e/f/g3|"D"f2e2 "G"d3B/c/|\
dedc BcBA|G2 G2 B3G|"C"AecA G3F|"G"G2B2 G2|
